X: 161
T:Na fonte da Falperra
M:2/4
L:1/16
Q:150
C:Carlos Justo
R:Polca
K:C
CEG |: c2ce dcBA | G8| BcAB GAFG |EFDE CCEG |
c2ce dcBA |G8 | BcAB GAFG |1 E4- ECEG :|2 E4-E2G2 |:
G2EG cBcA | G2EG cBAG | F2DE FDEF | EDEF G2G2 | G2EG cBcA |
G2EG cBAG | F2DG GFED |1 C4- C2E2 :|2 C2EG c4 |: A2GA _B2G2 |
F2A2 c4 | _B2A2 GABc | d2c6 | A2GA _B2G2| F2A2 c4 |
_BcAB GBAG |1 F8 :|2 F4- F||

